X: 10946
T: Drummond Castle
R: jig
M: 6/8
K: Aminor
|:A2A a2a|age g2B|c2d edc|B/c/dg dBG|
AGA a2a|age g2g|ege deg|1 edB A2G:|2 edB A2B||
|:c2d edc|d2e ged|c2d edc|B/c/dg dBG|
c2d edc|deg a2g|ege deg|1 edB A2B:|2 edB A2G||

